X:259
T: ALS WIR JUENGST IN REGENSBURG WAREN
N: E0136
O: Europa, Mitteleuropa, Deutschland, Bayern
R: erzaehlendes Volks - Lied, Schalk -, Schelmen - Lied, Liebe
M: 2/4
L: 1/8
K: E
 | B2BA | GBeG | B2AF | G2Ez
B2BA | GBeG | B2AF | G2Ez
E2GB | E2E2 | A2ce | B2z2
A2A2 | G2GA | B4 | E2z2
E2GB | E2GB | A2ce | B4
d2cd | eGcB | B2AF | E2z2
E2GB | E2GB | A2ce | B4
d2cd | eGcB | B2AF | E2z2

